X:52
T:Off she goes. Dix.52
M:6/8
L:1/8
Q:1/4=120
S:Anon. MS dated 1811, from Dixon collection, Holton le Moor, Lincs.
R:jig
N:No time sig in ms
O:England;Lincolnshire;Holton le Moor
Z:vmp.R.Greig 2012 <http://www.village-music-project.org.uk>
K:D
F2AG2B|ABAd3|F2AG2B|AGFE3|!
F2AG2B|ABAd3|f2dg2f|edcd3:|!
|:faf d2f|egec2e|fafd2g|edcd3|!
fafd2f|egec2e|f2dg2f|edcd3:|!

